static/images/immudb/runs-on/mac-os.svg

<svg width="66" height="80" viewBox="0 0 66 80" fill="none" xmlns="http://www.w3.org/2000/svg">
<path fill-rule="evenodd" clip-rule="evenodd" d="M36.6867 6.96452C41.943 0.0394217 49.2492 0 49.2492 0C49.2492 0 50.3398 6.51774 45.1099 12.7858C39.5382 19.4875 33.2045 18.3837 33.2045 18.3837C33.2045 18.3837 32.0087 13.1143 36.6867 6.96452Z" fill="#999999"/>
<path fill-rule="evenodd" clip-rule="evenodd" d="M33.8746 22.9566C36.5816 22.9566 41.6013 19.2378 48.1322 19.2378C59.3806 19.2378 63.7958 27.2405 63.7958 27.2405C63.7958 27.2405 55.1493 31.6689 55.1493 42.3916C55.1493 54.4941 65.9246 58.6728 65.9246 58.6728C65.9246 58.6728 58.395 79.8817 48.2111 79.8817C43.533 79.8817 39.9062 76.728 34.9785 76.728C29.9587 76.728 24.9785 80 21.7327 80C12.4423 79.9869 0.707764 59.8817 0.707764 43.7057C0.707764 27.7924 10.6421 19.4481 19.9587 19.4481C26.0166 19.4612 30.7209 22.9566 33.8746 22.9566Z" fill="#999999"/>
</svg>

<svg xmlns="http://www.w3.org/2000/svg" width="66" height="80" fill="#999" fill-rule="evenodd" xmlns:v="https://vecta.io/nano"><path d="M36.687 6.965C41.943.039 49.249 0 49.249 0s1.091 6.518-4.139 12.786c-5.572 6.702-11.905 5.598-11.905 5.598s-1.196-5.269 3.482-11.419zm-2.812 15.992c2.707 0 7.727-3.719 14.258-3.719 11.248 0 15.664 8.003 15.664 8.003s-8.647 4.428-8.647 15.151c0 12.103 10.775 16.281 10.775 16.281s-7.53 21.209-17.713 21.209c-4.678 0-8.305-3.154-13.233-3.154-5.02 0-10 3.272-13.246 3.272C12.442 79.987.708 59.882.708 43.706c0-15.913 9.934-24.258 19.251-24.258 6.058.013 10.762 3.509 13.916 3.509z"/></svg>
